src/extras-openmoji/ui-element/E242.svg

<?xml version="1.0" encoding="UTF-8"?>
<svg id="emoji" xmlns="http://www.w3.org/2000/svg" viewBox="0 0 72 72">
  <g id="grid">
    <path d="m68,4v64H4V4h64m4-4H0v72h72V0Z" fill="#b3b3b3"/>
    <path d="m12.923,10.9583h46.1539c1.0621,0,1.9231.861,1.9231,1.9231h0v46.1538c0,1.0621-.861,1.9231-1.9231,1.9231H12.9231c-1.0621,0-1.9231-.861-1.9231-1.9231h0V12.8813c0-1.062.861-1.923,1.923-1.923h0Z" fill="none" stroke="#00a5ff" stroke-miterlimit="10" stroke-width=".1"/>
    <path d="m18.2537,4h35.4926c1.2447,0,2.2537,1.009,2.2537,2.2537v59.4926c0,1.2447-1.009,2.2537-2.2537,2.2537H18.2537c-1.2447,0-2.2537-1.009-2.2537-2.2537V6.2537c0-1.2447,1.009-2.2537,2.2537-2.2537Z" fill="none" stroke="#00a5ff" stroke-miterlimit="10" stroke-width=".1"/>
    <path d="m68,18.2537v35.4926c0,1.2447-1.009,2.2537-2.2537,2.2537H6.2537c-1.2447,0-2.2537-1.009-2.2537-2.2537V18.2537c0-1.2447,1.009-2.2537,2.2537-2.2537h59.4926c1.2447,0,2.2537,1.009,2.2537,2.2537Z" fill="none" stroke="#00a5ff" stroke-miterlimit="10" stroke-width=".1"/>
    <circle cx="36" cy="36" r="29" fill="none" stroke="#00a5ff" stroke-miterlimit="10" stroke-width=".1"/>
  </g>
  <g id="color">
    <circle cx="35.9867" cy="25.4947" r="10.3805" fill="#fff"/>
    <path d="m36,65.0208s-3.091-5.9737-13.8722-26.8922c-2.1278-4.1286-4.8172-7.7062-4.8172-12.5241,0-10.3214,8.3671-18.6885,18.6885-18.6885v8.0285s-10.4583.5199-10.4583,10.3971,10.4587,10.7561,10.4587,10.7561l.0005,28.9231Z" fill="#d0cfce"/>
    <path d="m35.9736,65.0172s2.998-6.0172,13.8722-26.8922c2.0634-3.9611,4.8173-7.7062,4.8173-12.5242,0-10.3214-8.3671-18.6885-18.6885-18.6885l-.2836,8.0321s11.1773.2666,11.0085,10.7347c-.1688,10.4681-11.0088,10.4184-11.0088,10.4184l.2829,28.9197Z" fill="#d0cfce"/>
    <path d="m36.8281,7.5469s9.7494,4.0365,11.8385,15.2865c2.0391,10.9801-9.1666,30.1666-12.1666,39.8333-2.498,8.0491,11.7767-21.3418,16.6239-31.4034,1.1796-2.4485,1.6107-5.1986,1.1483-7.8768-1.0513-6.0888-4.7163-16.0241-17.4441-15.8396Z" fill="#9b9b9a"/>
  </g>
  <g id="line">
    <circle cx="36.001" cy="25.5211" r="10.5766" fill="none" stroke="#000" stroke-linecap="round" stroke-linejoin="round" stroke-width="2"/>
    <path d="m36,65.0208s-3.091-5.9737-13.8722-26.8922c-2.1278-4.1286-4.8172-7.7062-4.8172-12.5241,0-10.3214,8.3671-18.6885,18.6885-18.6885" fill="none" stroke="#000" stroke-linecap="round" stroke-linejoin="round" stroke-width="2"/>
    <path d="m36.002,65.0172s2.998-6.0172,13.8722-26.8922c2.0634-3.9611,4.8173-7.7062,4.8173-12.5242,0-10.3214-8.3671-18.6885-18.6885-18.6885" fill="none" stroke="#000" stroke-linecap="round" stroke-linejoin="round" stroke-width="2"/>
  </g>
</svg>

<svg id="emoji" viewBox="0 0 72 72" version="1.1" xmlns="http://www.w3.org/2000/svg">
  <g id="grid">
    <path fill="#B3B3B3" d="M68,4v64H4V4H68 M72,0H0v72h72V0z"/>
    <path fill="none" stroke="#00A5FF" stroke-miterlimit="10" stroke-width="0.1" d="M12.923,10.9583h46.1539 c1.0621,0,1.9231,0.861,1.9231,1.9231v0v46.1538c0,1.0621-0.861,1.9231-1.9231,1.9231H12.9231 c-1.0621,0-1.9231-0.861-1.9231-1.9231l0,0V12.8813C11,11.8193,11.861,10.9583,12.923,10.9583L12.923,10.9583z"/>
    <path fill="none" stroke="#00A5FF" stroke-miterlimit="10" stroke-width="0.1" d="M18.2537,4h35.4926C54.991,4,56,5.009,56,6.2537 v59.4926C56,66.991,54.991,68,53.7463,68H18.2537C17.009,68,16,66.991,16,65.7463V6.2537C16,5.009,17.009,4,18.2537,4z"/>
    <path fill="none" stroke="#00A5FF" stroke-miterlimit="10" stroke-width="0.1" d="M68,18.2537v35.4926 C68,54.991,66.991,56,65.7463,56H6.2537C5.009,56,4,54.991,4,53.7463V18.2537C4,17.009,5.009,16,6.2537,16h59.4926 C66.991,16,68,17.009,68,18.2537z"/>
    <circle cx="36" cy="36" r="29" fill="none" stroke="#00A5FF" stroke-miterlimit="10" stroke-width="0.1"/>
  </g>
  <g id="color">
    <path fill="#D0CFCE" d="M36,65.0208c0,0-3.091-5.9737-13.8722-26.8922C20,34,17.3106,30.4224,17.3106,25.6045 c0-10.3214,8.3671-18.6885,18.6885-18.6885l0.0001,8.0285c0,0-10.4584,0.5199-10.4584,10.3971s10.4587,10.7561,10.4587,10.7561 L36,65.0208z"/>
    <path fill="#D0CFCE" d="M35.9736,65.0172c0,0,2.998-6.0172,13.8722-26.8922c2.0634-3.9611,4.8173-7.7062,4.8173-12.5242 c0-10.3214-8.3671-18.6885-18.6885-18.6885l-0.2836,8.0321c0,0,11.1773,0.2666,11.0085,10.7347S35.6907,36.0975,35.6907,36.0975 L35.9736,65.0172z"/>
    <path fill="#9B9B9A" d="M36.8281,7.5469c0,0,9.7494,4.0365,11.8385,15.2865C50.7057,33.8135,39.5,53,36.5,62.6667 S54.6914,28,54.6914,28S55.1562,7.2812,36.8281,7.5469z"/>
  </g>
  <g id="hair"/>
  <g id="skin"/>
  <g id="skin-shadow"/>
  <g id="line">
    <circle cx="36.001" cy="25.5211" r="10.5766" fill="none" stroke="#000000" stroke-linecap="round" stroke-linejoin="round" stroke-miterlimit="10" stroke-width="2"/>
    <path fill="none" stroke="#000000" stroke-linecap="round" stroke-linejoin="round" stroke-miterlimit="10" stroke-width="2" d="M36,65.0208c0,0-3.091-5.9737-13.8722-26.8922C20,34,17.3106,30.4224,17.3106,25.6045c0-10.3214,8.3671-18.6885,18.6885-18.6885"/>
    <path fill="none" stroke="#000000" stroke-linecap="round" stroke-linejoin="round" stroke-miterlimit="10" stroke-width="2" d="M36.002,65.0172c0,0,2.998-6.0172,13.8722-26.8922c2.0634-3.9611,4.8173-7.7062,4.8173-12.5242 c0-10.3214-8.3671-18.6885-18.6885-18.6885"/>
  </g>
</svg>
